build/images/slider/person-3.svg

<svg width="98" height="277" viewBox="0 0 98 277" fill="none" xmlns="http://www.w3.org/2000/svg">
<path d="M20.1265 45.4302H45.3853V15.0137H26.2785C22.8772 15.0137 20.1172 17.7737 20.1172 21.175V45.4302H20.1265Z" fill="#FF9415"/>
<path d="M85.2061 45.4302H59.9473V15.0137H79.054C82.4553 15.0137 85.2154 17.7737 85.2154 21.175V45.4302H85.2061Z" fill="#FF9415"/>
<path d="M40.1046 276.245H42.3164C44.1007 276.245 45.5597 274.786 45.5597 273.001V197.169C45.5597 195.385 44.1007 193.926 42.3164 193.926H40.1046C38.3203 193.926 36.8613 195.385 36.8613 197.169V273.001C36.8613 274.786 38.3203 276.245 40.1046 276.245Z" fill="#1991D1"/>
<path d="M59.2218 276.245H61.4336C63.2179 276.245 64.6769 274.786 64.6769 273.001V197.169C64.6769 195.385 63.2179 193.926 61.4336 193.926H59.2218C57.4375 193.926 55.9785 195.385 55.9785 197.169V273.001C55.9785 274.786 57.4375 276.245 59.2218 276.245Z" fill="#1991D1"/>
<path d="M51.7038 208.479C76.0112 208.479 95.7163 201.231 95.7163 192.29C95.7163 183.35 76.0112 176.102 51.7038 176.102C27.3964 176.102 7.69141 183.35 7.69141 192.29C7.69141 201.231 27.3964 208.479 51.7038 208.479Z" fill="#1991D1"/>
<path d="M62.5031 239.639C64.9308 239.639 66.8988 237.671 66.8988 235.243C66.8988 232.816 64.9308 230.848 62.5031 230.848C60.0754 230.848 58.1074 232.816 58.1074 235.243C58.1074 237.671 60.0754 239.639 62.5031 239.639Z" fill="#1991D1"/>
<path d="M38.6183 238.746C41.046 238.746 43.014 236.778 43.014 234.351C43.014 231.923 41.046 229.955 38.6183 229.955C36.1907 229.955 34.2227 231.923 34.2227 234.351C34.2227 236.778 36.1907 238.746 38.6183 238.746Z" fill="#1991D1"/>
<path opacity="0.43" d="M51.7043 176.092C76.0152 176.092 95.7168 183.34 95.7168 192.28C95.7168 195.923 92.4549 199.278 86.944 201.983H16.4739C10.9631 199.278 7.70118 195.923 7.70118 192.28C7.69188 183.34 27.3934 176.092 51.7043 176.092Z" fill="#006DA2"/>
<path d="M14.9314 199.811H91.2283C94.927 199.811 97.9286 196.809 97.9286 193.11V116.6C97.9286 102.809 86.6374 91.5176 72.8464 91.5176H25.8323C12.0412 91.5176 0.75 102.809 0.75 116.6V185.629C0.75 193.426 7.12511 199.811 14.9314 199.811Z" fill="#EDB433"/>
<path d="M16.0551 199.606H15.6369C10.5535 199.606 5.99057 197.636 2.92383 194.541V125.744H16.0644V199.606H16.0551Z" fill="#E29733"/>
<path d="M12.0308 203.759C12.0308 206.845 9.50309 209.372 6.41776 209.372C3.33243 209.372 0.804688 206.845 0.804688 203.759V125.957H12.0308V203.759Z" fill="#ECD5B9"/>
<path d="M9.01122 203.759V125.957H12.2266V203.759C12.2266 206.845 9.6989 209.372 6.61357 209.372C6.04669 209.372 5.51698 209.261 5.00586 209.103C7.31056 208.406 9.01122 206.278 9.01122 203.759Z" fill="#F2BC9C"/>
<path opacity="0.38" d="M36.8582 269.662L45.5566 269.662L45.5566 244.134L36.8582 244.134L36.8582 269.662Z" fill="#161612"/>
<path d="M40.6822 268.059C43.5259 268.059 46.1931 268.514 48.4885 269.313C52.3823 270.67 51.4437 276.413 47.3175 276.413H34.0469C29.9207 276.413 28.9821 270.67 32.8759 269.313C35.1714 268.523 37.8292 268.059 40.6822 268.059Z" fill="#161622"/>
<path d="M34.0461 274.49H47.3168C49.2033 274.49 50.4207 273.282 50.811 271.842C51.4058 273.951 50.0769 276.535 47.3168 276.535H34.0461C31.2861 276.535 29.9571 273.951 30.5519 271.842C30.9422 273.282 32.1596 274.49 34.0461 274.49Z" fill="#1B242C"/>
<path d="M35.7453 270.414L46.5254 270.414L46.5254 246.633L35.7453 246.633L35.7453 270.414Z" fill="#161622"/>
<path opacity="0.45" d="M42.9775 251.443L39 254.25" stroke="white" stroke-width="1.13107" stroke-miterlimit="10" stroke-linecap="round" stroke-linejoin="round"/>
<path opacity="0.45" d="M38.6836 251.443L42.6704 254.25" stroke="white" stroke-width="1.13107" stroke-miterlimit="10" stroke-linecap="round" stroke-linejoin="round"/>
<path opacity="0.45" d="M42.9775 254.248L39 257.064" stroke="white" stroke-width="1.13107" stroke-miterlimit="10" stroke-linecap="round" stroke-linejoin="round"/>
<path opacity="0.45" d="M38.6836 254.248L42.6704 257.064" stroke="white" stroke-width="1.13107" stroke-miterlimit="10" stroke-linecap="round" stroke-linejoin="round"/>
<path opacity="0.45" d="M42.9794 257.119L39.002 259.926" stroke="white" stroke-width="1.13107" stroke-miterlimit="10" stroke-linecap="round" stroke-linejoin="round"/>
<path opacity="0.45" d="M38.6836 257.119L42.6704 259.926" stroke="white" stroke-width="1.13107" stroke-miterlimit="10" stroke-linecap="round" stroke-linejoin="round"/>
<path opacity="0.45" d="M42.9775 259.928L39 262.744" stroke="white" stroke-width="1.13107" stroke-miterlimit="10" stroke-linecap="round" stroke-linejoin="round"/>
<path opacity="0.45" d="M38.6855 259.928L42.6723 262.744" stroke="white" stroke-width="1.13107" stroke-miterlimit="10" stroke-linecap="round" stroke-linejoin="round"/>
<path opacity="0.45" d="M42.9775 262.742L39 265.558" stroke="white" stroke-width="1.13107" stroke-miterlimit="10" stroke-linecap="round" stroke-linejoin="round"/>
<path opacity="0.45" d="M38.6836 262.742L42.6704 265.558" stroke="white" stroke-width="1.13107" stroke-miterlimit="10" stroke-linecap="round" stroke-linejoin="round"/>
<path opacity="0.38" d="M56.0047 269.662L64.7031 269.662L64.7031 244.134L56.0047 244.134L56.0047 269.662Z" fill="#161612"/>
<path d="M59.817 268.059C62.6607 268.059 65.3278 268.514 67.6232 269.313C71.5171 270.67 70.5785 276.413 66.4523 276.413H53.1816C49.0555 276.413 48.1169 270.67 52.0107 269.313C54.3061 268.523 56.9733 268.059 59.817 268.059Z" fill="#161622"/>
<path d="M53.1907 274.49H66.4613C68.3478 274.49 69.5652 273.282 69.9555 271.842C70.5503 273.951 69.2214 276.535 66.4613 276.535H53.1907C50.4306 276.535 49.1017 273.951 49.6964 271.842C50.0867 273.282 51.2949 274.49 53.1907 274.49Z" fill="#1B242C"/>
<path d="M54.8918 270.414L65.6719 270.414L65.6719 246.633L54.8918 246.633L54.8918 270.414Z" fill="#161622"/>
<path opacity="0.45" d="M62.1215 251.443L58.1348 254.25" stroke="white" stroke-width="1.13107" stroke-miterlimit="10" stroke-linecap="round" stroke-linejoin="round"/>
<path opacity="0.45" d="M57.8281 251.443L61.8149 254.25" stroke="white" stroke-width="1.13107" stroke-miterlimit="10" stroke-linecap="round" stroke-linejoin="round"/>
<path opacity="0.45" d="M62.1215 254.248L58.1348 257.064" stroke="white" stroke-width="1.13107" stroke-miterlimit="10" stroke-linecap="round" stroke-linejoin="round"/>
<path opacity="0.45" d="M57.8281 254.248L61.8149 257.064" stroke="white" stroke-width="1.13107" stroke-miterlimit="10" stroke-linecap="round" stroke-linejoin="round"/>
<path opacity="0.45" d="M62.1215 257.119L58.1348 259.926" stroke="white" stroke-width="1.13107" stroke-miterlimit="10" stroke-linecap="round" stroke-linejoin="round"/>
<path opacity="0.45" d="M57.8281 257.119L61.8149 259.926" stroke="white" stroke-width="1.13107" stroke-miterlimit="10" stroke-linecap="round" stroke-linejoin="round"/>
<path opacity="0.45" d="M62.1215 259.928L58.1348 262.744" stroke="white" stroke-width="1.13107" stroke-miterlimit="10" stroke-linecap="round" stroke-linejoin="round"/>
<path opacity="0.45" d="M57.8281 259.928L61.8149 262.744" stroke="white" stroke-width="1.13107" stroke-miterlimit="10" stroke-linecap="round" stroke-linejoin="round"/>
<path opacity="0.45" d="M62.1215 262.742L58.1348 265.558" stroke="white" stroke-width="1.13107" stroke-miterlimit="10" stroke-linecap="round" stroke-linejoin="round"/>
<path opacity="0.45" d="M57.8281 262.742L61.8149 265.558" stroke="white" stroke-width="1.13107" stroke-miterlimit="10" stroke-linecap="round" stroke-linejoin="round"/>
<path d="M67.8379 96.9062V135.687" stroke="#E29733" stroke-width="2.67727" stroke-miterlimit="10"/>
<path d="M67.7454 139.366C69.4289 139.366 70.7936 138.001 70.7936 136.318C70.7936 134.634 69.4289 133.27 67.7454 133.27C66.062 133.27 64.6973 134.634 64.6973 136.318C64.6973 138.001 66.062 139.366 67.7454 139.366Z" fill="#E29733"/>
<path d="M39.5215 96.9062V135.687" stroke="#E29733" stroke-width="2.67727" stroke-miterlimit="10"/>
<path d="M39.4368 139.366C41.1203 139.366 42.485 138.001 42.485 136.318C42.485 134.634 41.1203 133.27 39.4368 133.27C37.7534 133.27 36.3887 134.634 36.3887 136.318C36.3887 138.001 37.7534 139.366 39.4368 139.366Z" fill="#E29733"/>
<path d="M85.5875 53.1359C87.9895 53.1359 89.9367 51.1887 89.9367 48.7867C89.9367 46.3847 87.9895 44.4375 85.5875 44.4375C83.1855 44.4375 81.2383 46.3847 81.2383 48.7867C81.2383 51.1887 83.1855 53.1359 85.5875 53.1359Z" fill="#F1BBBB"/>
<path d="M19.2047 53.1359C21.6067 53.1359 23.5539 51.1887 23.5539 48.7867C23.5539 46.3847 21.6067 44.4375 19.2047 44.4375C16.8027 44.4375 14.8555 46.3847 14.8555 48.7867C14.8555 51.1887 16.8027 53.1359 19.2047 53.1359Z" fill="#F1BBBB"/>
<path d="M52.3362 107.648H52.9402C70.6902 107.648 85.2061 93.1227 85.2061 75.3821V47.2795C85.2061 29.5296 70.6809 15.0137 52.9402 15.0137H52.3362C34.5862 15.0137 20.0703 29.5389 20.0703 47.2795V75.3728C20.0703 93.1227 34.5955 107.648 52.3362 107.648Z" fill="#ECD5B9"/>
<path d="M43.7959 50.5972H43.8517C45.5988 50.5972 47.0207 49.1753 47.0207 47.4282V43.4229C47.0207 41.6758 45.5988 40.2539 43.8517 40.2539H43.7959C42.0488 40.2539 40.627 41.6758 40.627 43.4229V47.4282C40.627 49.1753 42.0581 50.5972 43.7959 50.5972Z" fill="black"/>
<path opacity="0.38" d="M44.4658 46.24H44.4937C45.2464 46.24 45.8598 45.6267 45.8598 44.8739V43.1454C45.8598 42.3926 45.2464 41.7793 44.4937 41.7793H44.4658C43.7131 41.7793 43.0997 42.3926 43.0997 43.1454V44.8739C43.0904 45.6267 43.7038 46.24 44.4658 46.24Z" fill="white"/>
<path d="M58.8612 63.0427C61.1965 63.0427 63.0896 61.1496 63.0896 58.8143C63.0896 56.4791 61.1965 54.5859 58.8612 54.5859C56.5259 54.5859 54.6328 56.4791 54.6328 58.8143C54.6328 61.1496 56.5259 63.0427 58.8612 63.0427Z" fill="#F0C1AF"/>
<path d="M55.9509 59.8919C57.7259 61.4159 60.3931 61.2115 61.9078 59.4365C62.3446 58.9254 62.6234 58.3399 62.7814 57.7266C63.1253 59.0276 62.8557 60.4773 61.9078 61.5739C60.3838 63.3489 57.7166 63.5534 55.9509 62.0293C54.6871 60.9513 54.241 59.2878 54.622 57.7823C54.8357 58.5722 55.2725 59.3157 55.9509 59.8919Z" fill="#F4A8BB"/>
<path d="M28.8814 45.189C28.8814 47.8283 26.7254 49.9843 24.0862 49.9843C22.3112 49.9843 20.7685 48.9992 19.9414 47.5495V47.28C19.9414 38.6931 23.3613 30.8868 28.8721 25.0879V45.189H28.8814Z" fill="#FF9415"/>
<path d="M76.3496 44.7535C76.3496 47.3927 78.5056 49.5487 81.1449 49.5487C82.9199 49.5487 84.4625 48.5637 85.2896 47.1139V46.8444C85.2896 38.2575 81.8698 30.4513 76.3589 24.6523V44.7535H76.3496Z" fill="#FF9415"/>
<path d="M42.4959 34.3167H77.1037C85.8764 34.3167 93.0507 27.1424 93.0507 18.3696V0.591797H42.4959C33.7232 0.591797 26.5488 7.76612 26.5488 16.5389V18.3696C26.5488 27.1424 33.7232 34.3167 42.4959 34.3167Z" fill="#FFB815"/>
<path d="M41.6316 27.9491H77.9679C86.2667 27.9491 93.0507 20.3566 93.0507 11.082V17.4571C93.0507 26.7317 86.2667 34.3242 77.9679 34.3242H41.6316C33.3328 34.3242 26.5488 26.7317 26.5488 17.4571C26.5488 16.3698 26.6511 15.3011 26.8276 14.2696C28.1658 22.0294 34.3086 27.9491 41.6316 27.9491Z" fill="#FF9415"/>
<path d="M70.2901 50.5972H70.3458C72.0929 50.5972 73.5148 49.1753 73.5148 47.4282V43.4229C73.5148 41.6758 72.0929 40.2539 70.3458 40.2539H70.2901C68.5429 40.2539 67.1211 41.6758 67.1211 43.4229V47.4282C67.1211 49.1753 68.5429 50.5972 70.2901 50.5972Z" fill="black"/>
<path opacity="0.38" d="M71.1825 46.24H71.2104C71.9631 46.24 72.5765 45.6267 72.5765 44.8739V43.1454C72.5765 42.3926 71.9631 41.7793 71.2104 41.7793H71.1825C70.4298 41.7793 69.8164 42.3926 69.8164 43.1454V44.8739C69.8164 45.6267 70.4298 46.24 71.1825 46.24Z" fill="white"/>
<path opacity="0.5" d="M37.774 65.7921C40.1657 65.7921 42.1046 63.8532 42.1046 61.4615C42.1046 59.0697 40.1657 57.1309 37.774 57.1309C35.3822 57.1309 33.4434 59.0697 33.4434 61.4615C33.4434 63.8532 35.3822 65.7921 37.774 65.7921Z" fill="#F0B4AF"/>
<path opacity="0.5" d="M76.3502 65.7921C78.7419 65.7921 80.6808 63.8532 80.6808 61.4615C80.6808 59.0697 78.7419 57.1309 76.3502 57.1309C73.9584 57.1309 72.0195 59.0697 72.0195 61.4615C72.0195 63.8532 73.9584 65.7921 76.3502 65.7921Z" fill="#F0B4AF"/>
<path opacity="0.67" d="M52.3362 98.5901H52.9402C70.6902 98.5901 85.2061 84.0649 85.2061 66.3242V75.3758C85.2061 93.1257 70.6809 107.642 52.9402 107.642H52.3362C34.5862 107.642 20.0703 93.1164 20.0703 75.3758V66.3242C20.0703 84.0742 34.5955 98.5901 52.3362 98.5901Z" fill="#F0C1AF"/>
<path d="M54.2879 89.6769H56.574C57.9215 89.6769 59.0181 88.571 59.0181 87.2328V82.8465C59.0181 81.4989 57.9122 80.4023 56.574 80.4023H54.2879C52.9403 80.4023 51.8438 81.5082 51.8438 82.8465V87.2328C51.8438 88.571 52.9403 89.6769 54.2879 89.6769Z" fill="#FFB815"/>
<path d="M66.489 70.123C67.6042 70.123 68.4777 71.1546 68.2547 72.2512C67.0094 78.2174 61.7588 82.706 55.4208 82.706C49.0829 82.706 43.8322 78.2174 42.5963 72.2512C42.3639 71.1546 43.2375 70.123 44.362 70.123H66.489Z" fill="#A8132A"/>
<path d="M46.2308 70.123H64.4918C65.4212 70.123 66.1367 70.978 65.9509 71.8795C65.9509 71.8887 65.9509 71.898 65.9416 71.9073C65.765 72.7344 65.0401 73.3385 64.1944 73.3385H46.5281C45.6825 73.3385 44.9576 72.7344 44.781 71.9073C44.781 71.898 44.781 71.8887 44.7717 71.8795C44.5859 70.9687 45.3014 70.123 46.2308 70.123Z" fill="white"/>
<path opacity="0.15" d="M50.9234 37.4485C50.9234 36.4262 50.087 35.5898 49.0647 35.5898H42.4387C41.4165 35.5898 40.5801 36.4262 40.5801 37.4485C40.5801 38.4707 41.4165 39.3071 42.4387 39.3071H49.0647C50.087 39.3071 50.9234 38.4707 50.9234 37.4485Z" fill="black"/>
<path d="M50.9234 35.3586C50.9234 34.3364 50.087 33.5 49.0647 33.5H42.4387C41.4165 33.5 40.5801 34.3364 40.5801 35.3586C40.5801 36.3809 41.4165 37.2173 42.4387 37.2173H49.0647C50.087 37.2266 50.9234 36.3902 50.9234 35.3586Z" fill="#FFB815"/>
<path opacity="0.15" d="M77.1949 37.4485C77.1949 36.4262 76.3585 35.5898 75.3362 35.5898H68.7102C67.6879 35.5898 66.8516 36.4262 66.8516 37.4485C66.8516 38.4707 67.6879 39.3071 68.7102 39.3071H75.3362C76.3585 39.3071 77.1949 38.4707 77.1949 37.4485Z" fill="black"/>
<path d="M77.1949 35.3586C77.1949 34.3364 76.3585 33.5 75.3362 33.5H68.7102C67.6879 33.5 66.8516 34.3364 66.8516 35.3586C66.8516 36.3809 67.6879 37.2173 68.7102 37.2173H75.3362C76.3585 37.2266 77.1949 36.3902 77.1949 35.3586Z" fill="#FFB815"/>
<path d="M39.465 156.009C39.4557 155.173 40.1248 154.504 40.9612 154.504H51.9086H53.3769H64.3242C65.1606 154.504 65.8297 155.173 65.8204 156.009C65.7554 160.033 66.471 171.036 75.6712 175.544C76.1916 175.795 76.5355 176.306 76.5355 176.882V187.541C76.5355 188.368 75.8664 189.037 75.0393 189.037H55.0032H50.2916H30.2462C29.4191 189.037 28.75 188.368 28.75 187.541V176.882C28.75 176.306 29.1031 175.795 29.6143 175.544C38.8238 171.046 39.5301 160.033 39.465 156.009Z" fill="#E29733"/>
<path opacity="0.61" d="M29.6143 175.544C38.8145 171.036 39.5301 160.033 39.465 156.009C39.4557 155.173 40.1248 154.504 40.9612 154.504H51.9086H53.3769H53.507V189.037H50.2916H30.2462C29.4191 189.037 28.75 188.368 28.75 187.541V176.882C28.75 176.306 29.1031 175.795 29.6143 175.544Z" fill="#C76C33"/>
<path d="M0.801816 193.92L12.2324 193.92L12.2324 125.169L0.801816 125.169L0.801816 193.92Z" fill="#EDB433"/>
</svg>

<svg width="98" height="277" viewBox="0 0 98 277" fill="none" xmlns="http://www.w3.org/2000/svg"><path d="M20.127 45.43h25.258V15.014H26.28a6.163 6.163 0 00-6.162 6.161V45.43h.01zm65.079 0H59.947V15.014h19.107a6.163 6.163 0 016.161 6.161V45.43h-.009z" fill="#FF9415"/><path d="M40.105 276.245h2.211a3.252 3.252 0 003.244-3.244v-75.832a3.252 3.252 0 00-3.244-3.243h-2.211a3.252 3.252 0 00-3.244 3.243v75.832a3.252 3.252 0 003.244 3.244zm19.117 0h2.212a3.252 3.252 0 003.243-3.244v-75.832a3.252 3.252 0 00-3.243-3.243h-2.212a3.252 3.252 0 00-3.244 3.243v75.832a3.252 3.252 0 003.244 3.244z" fill="#1991D1"/><path d="M51.704 208.479c24.307 0 44.012-7.248 44.012-16.189 0-8.94-19.705-16.188-44.012-16.188-24.308 0-44.013 7.248-44.013 16.188 0 8.941 19.705 16.189 44.013 16.189zm10.799 31.16a4.396 4.396 0 100-8.791 4.396 4.396 0 000 8.791zm-23.885-.893a4.396 4.396 0 100-8.791 4.396 4.396 0 000 8.791z" fill="#1991D1"/><path opacity=".43" d="M51.704 176.092c24.311 0 44.013 7.248 44.013 16.188 0 3.643-3.262 6.998-8.773 9.703h-70.47c-5.51-2.705-8.773-6.06-8.773-9.703-.01-8.94 19.692-16.188 44.003-16.188z" fill="#006DA2"/><path d="M14.931 199.811h76.297c3.699 0 6.7-3.002 6.7-6.701V116.6c0-13.791-11.29-25.082-25.082-25.082H25.832C12.042 91.518.75 102.809.75 116.6v69.029c0 7.797 6.375 14.182 14.181 14.182z" fill="#EDB433"/><path d="M16.055 199.606h-.418c-5.084 0-9.646-1.97-12.713-5.065v-68.797h13.14v73.862h-.009z" fill="#E29733"/><path d="M12.03 203.759c0 3.086-2.527 5.613-5.612 5.613-3.086 0-5.613-2.527-5.613-5.613v-77.802H12.03v77.802z" fill="#ECD5B9"/><path d="M9.011 203.759v-77.802h3.216v77.802c0 3.086-2.528 5.613-5.613 5.613-.567 0-1.097-.111-1.608-.269 2.305-.697 4.005-2.825 4.005-5.344z" fill="#F2BC9C"/><path opacity=".38" d="M36.858 269.662h8.699v-25.528h-8.699v25.528z" fill="#161612"/><path d="M40.682 268.059c2.844 0 5.511.455 7.806 1.254 3.894 1.357 2.956 7.1-1.17 7.1H34.047c-4.126 0-5.065-5.743-1.171-7.1 2.295-.79 4.953-1.254 7.806-1.254z" fill="#161622"/><path d="M34.046 274.49h13.27c1.887 0 3.105-1.208 3.495-2.648.595 2.109-.734 4.693-3.494 4.693h-13.27c-2.76 0-4.09-2.584-3.495-4.693.39 1.44 1.608 2.648 3.494 2.648z" fill="#1B242C"/><path d="M35.745 270.414h10.78v-23.781h-10.78v23.781z" fill="#161622"/><path opacity=".45" d="M42.977 251.443L39 254.25m-.316-2.807l3.986 2.807m.307-.002L39 257.064m-.316-2.816l3.986 2.816m.31.055l-3.978 2.807m-.318-2.807l3.986 2.807m.307.002L39 262.744m-.315-2.816l3.987 2.816m.305-.002L39 265.558m-.316-2.816l3.986 2.816" stroke="#fff" stroke-width="1.131" stroke-miterlimit="10" stroke-linecap="round" stroke-linejoin="round"/><path opacity=".38" d="M56.005 269.662h8.698v-25.528h-8.698v25.528z" fill="#161612"/><path d="M59.817 268.059c2.844 0 5.51.455 7.806 1.254 3.894 1.357 2.956 7.1-1.17 7.1H53.181c-4.127 0-5.065-5.743-1.171-7.1 2.295-.79 4.962-1.254 7.806-1.254z" fill="#161622"/><path d="M53.19 274.49h13.271c1.887 0 3.104-1.208 3.495-2.648.594 2.109-.735 4.693-3.495 4.693h-13.27c-2.76 0-4.09-2.584-3.495-4.693.39 1.44 1.599 2.648 3.495 2.648z" fill="#1B242C"/><path d="M54.892 270.414h10.78v-23.781h-10.78v23.781z" fill="#161622"/><path opacity=".45" d="M62.121 251.443l-3.986 2.807m-.307-2.807l3.987 2.807m.306-.002l-3.986 2.816m-.307-2.816l3.987 2.816m.306.055l-3.986 2.807m-.307-2.807l3.987 2.807m.306.002l-3.986 2.816m-.307-2.816l3.987 2.816m.306-.002l-3.986 2.816m-.307-2.816l3.987 2.816" stroke="#fff" stroke-width="1.131" stroke-miterlimit="10" stroke-linecap="round" stroke-linejoin="round"/><path d="M67.838 96.906v38.781" stroke="#E29733" stroke-width="2.677" stroke-miterlimit="10"/><path d="M67.745 139.366a3.048 3.048 0 100-6.097 3.048 3.048 0 000 6.097z" fill="#E29733"/><path d="M39.522 96.906v38.781" stroke="#E29733" stroke-width="2.677" stroke-miterlimit="10"/><path d="M39.437 139.366a3.048 3.048 0 100-6.097 3.048 3.048 0 000 6.097z" fill="#E29733"/><path d="M85.588 53.136a4.35 4.35 0 100-8.698 4.35 4.35 0 000 8.698zm-66.383 0a4.35 4.35 0 100-8.698 4.35 4.35 0 000 8.698z" fill="#F1BBBB"/><path d="M52.336 107.648h.604c17.75 0 32.266-14.525 32.266-32.266V47.28c0-17.75-14.525-32.265-32.266-32.265h-.604c-17.75 0-32.266 14.525-32.266 32.266v28.093c0 17.75 14.526 32.275 32.266 32.275z" fill="#ECD5B9"/><path d="M43.796 50.597h.056a3.173 3.173 0 003.169-3.169v-4.005a3.173 3.173 0 00-3.17-3.17h-.055a3.173 3.173 0 00-3.169 3.17v4.005a3.179 3.179 0 003.169 3.17z" fill="#000"/><path opacity=".38" d="M44.466 46.24h.028c.752 0 1.366-.613 1.366-1.366v-1.729a1.37 1.37 0 00-1.366-1.366h-.028c-.753 0-1.366.614-1.366 1.366v1.729a1.356 1.356 0 001.366 1.366z" fill="#fff"/><path d="M58.861 63.043a4.228 4.228 0 100-8.457 4.228 4.228 0 000 8.457z" fill="#F0C1AF"/><path d="M55.95 59.892a4.216 4.216 0 005.958-.456 4.224 4.224 0 00.873-1.71 4.22 4.22 0 01-.873 3.848 4.217 4.217 0 01-5.957.455c-1.264-1.078-1.71-2.741-1.329-4.247a4.18 4.18 0 001.329 2.11z" fill="#F4A8BB"/><path d="M28.881 45.189a4.807 4.807 0 01-4.795 4.795c-1.775 0-3.317-.985-4.145-2.434v-.27c0-8.587 3.42-16.393 8.931-22.192v20.101h.01zm47.469-.435a4.807 4.807 0 004.795 4.795c1.775 0 3.318-.985 4.145-2.435v-.27c0-8.587-3.42-16.393-8.931-22.192v20.102h-.01z" fill="#FF9415"/><path d="M42.496 34.317h34.608c8.772 0 15.947-7.175 15.947-15.947V.592H42.496c-8.773 0-15.947 7.174-15.947 15.947v1.83c0 8.773 7.174 15.948 15.947 15.948z" fill="#FFB815"/><path d="M41.632 27.95h36.336c8.299 0 15.083-7.593 15.083-16.868v6.375c0 9.275-6.784 16.867-15.083 16.867H41.632c-8.3 0-15.083-7.592-15.083-16.867 0-1.087.102-2.156.279-3.187 1.338 7.76 7.48 13.68 14.804 13.68z" fill="#FF9415"/><path d="M70.29 50.597h.056a3.173 3.173 0 003.169-3.169v-4.005a3.173 3.173 0 00-3.17-3.17h-.055a3.173 3.173 0 00-3.169 3.17v4.005a3.173 3.173 0 003.17 3.17z" fill="#000"/><path opacity=".38" d="M71.183 46.24h.027c.753 0 1.367-.613 1.367-1.366v-1.729a1.37 1.37 0 00-1.367-1.366h-.027a1.37 1.37 0 00-1.367 1.366v1.729c0 .753.614 1.366 1.367 1.366z" fill="#fff"/><path opacity=".5" d="M37.774 65.792a4.33 4.33 0 100-8.661 4.33 4.33 0 000 8.661zm38.576 0a4.33 4.33 0 100-8.661 4.33 4.33 0 000 8.661z" fill="#F0B4AF"/><path opacity=".67" d="M52.336 98.59h.604c17.75 0 32.266-14.525 32.266-32.266v9.052c0 17.75-14.525 32.266-32.266 32.266h-.604c-17.75 0-32.266-14.526-32.266-32.266v-9.052c0 17.75 14.526 32.266 32.266 32.266z" fill="#F0C1AF"/><path d="M54.288 89.677h2.286a2.453 2.453 0 002.444-2.444v-4.386a2.453 2.453 0 00-2.444-2.445h-2.286a2.453 2.453 0 00-2.444 2.445v4.386a2.453 2.453 0 002.444 2.444z" fill="#FFB815"/><path d="M66.489 70.123c1.115 0 1.989 1.032 1.766 2.128-1.246 5.966-6.496 10.455-12.834 10.455-6.338 0-11.589-4.489-12.825-10.455-.232-1.096.642-2.128 1.766-2.128h22.127z" fill="#A8132A"/><path d="M46.23 70.123h18.262c.93 0 1.645.855 1.459 1.756 0 .01 0 .019-.01.028a1.798 1.798 0 01-1.747 1.431H46.528c-.846 0-1.57-.604-1.747-1.43 0-.01 0-.02-.01-.029-.185-.91.53-1.756 1.46-1.756z" fill="#fff"/><path opacity=".15" d="M50.923 37.449a1.864 1.864 0 00-1.858-1.86h-6.626a1.864 1.864 0 00-1.859 1.86c0 1.022.837 1.858 1.859 1.858h6.626a1.864 1.864 0 001.858-1.858z" fill="#000"/><path d="M50.923 35.359a1.864 1.864 0 00-1.858-1.859h-6.626a1.864 1.864 0 00-1.859 1.859c0 1.022.837 1.858 1.859 1.858h6.626a1.852 1.852 0 001.858-1.858z" fill="#FFB815"/><path opacity=".15" d="M77.195 37.449a1.864 1.864 0 00-1.859-1.86H68.71a1.864 1.864 0 00-1.858 1.86c0 1.022.836 1.858 1.858 1.858h6.626a1.864 1.864 0 001.859-1.858z" fill="#000"/><path d="M77.195 35.359a1.864 1.864 0 00-1.859-1.859H68.71a1.864 1.864 0 00-1.858 1.859c0 1.022.836 1.858 1.858 1.858h6.626a1.852 1.852 0 001.859-1.858z" fill="#FFB815"/><path d="M39.465 156.009a1.485 1.485 0 011.496-1.505h23.363c.837 0 1.506.669 1.496 1.505-.065 4.024.651 15.027 9.851 19.535.52.251.864.762.864 1.338v10.659c0 .827-.669 1.496-1.496 1.496H30.246a1.495 1.495 0 01-1.496-1.496v-10.659c0-.576.353-1.087.864-1.338 9.21-4.498 9.916-15.511 9.851-19.535z" fill="#E29733"/><path opacity=".61" d="M29.614 175.544c9.2-4.508 9.916-15.511 9.851-19.535a1.485 1.485 0 011.496-1.505h12.546v34.533H30.246a1.495 1.495 0 01-1.496-1.496v-10.659c0-.576.353-1.087.864-1.338z" fill="#C76C33"/><path d="M.802 193.92h11.43v-68.751H.802v68.751z" fill="#EDB433"/></svg>
